X:1
P: Lochnagar
C: from TheSession.org, Cape Breton, etc.
C: arr. T. Traub 4-12-2007
K: D
M: 4/4
L: 1/8
A>F|"D"D2D>F A2A>B|"D"d>ef>e "G"eB|"D"A>Bd>B "Bm"A<FF>D|"E7"E>DE>F "A"E2 A>F|
"D"D2D>F "A"A2A>B| "D"d>ef>e "G"eB| "D"A>Bd>B "Bm"A<FF>D| "A"E>DE>F "D"D2 ||
A2|"D"d2f>e eA|"G"B2d>B "D"A<FF>G|"F#m"A<F F/ED/ "Bm"DB|"Em"A<FF>D "A"E2f>g|
"D"a>g "A"f/e/d/c/ "D7"eA|"G"Bg/f/ e/d/c/B/ A2F>G|"D"A2 "G"B>A "D"(3ABd a>g|"A"f2e>d d2 |]
